symbolic/64x64/apps/tor-browser-alpha.svg

<svg xmlns="http://www.w3.org/2000/svg" width="64" height="64" version="1">
 <circle style="opacity:0.2" cx="32" cy="33" r="28"/>
 <circle style="fill:#06f1ba" cx="32" cy="32" r="28"/>
 <path style="opacity:0.1" d="M 32,9 C 18.770249,9 8,19.770249 8,33 8,46.229751 18.770249,57 32,57 45.229751,57 56,46.229751 56,33 56,19.770249 45.229751,9 32,9 Z m 0,4.234375 C 42.940828,13.234375 51.765625,22.059172 51.765625,33 51.765625,43.940828 42.940828,52.765625 32,52.765625 21.059172,52.765625 12.234375,43.940828 12.234375,33 12.234375,22.059172 21.059172,13.234375 32,13.234375 Z M 32,17 c -8.810713,0 -16,7.189287 -16,16 0,8.810713 7.189287,16 16,16 8.810713,0 16,-7.189287 16,-16 0,-8.810713 -7.189287,-16 -16,-16 z m 0,4.363281 c 6.452429,0 11.636719,5.18429 11.636719,11.636719 0,6.452429 -5.18429,11.636719 -11.636719,11.636719 -6.452429,0 -11.636719,-5.18429 -11.636719,-11.636719 0,-6.452429 5.18429,-11.636719 11.636719,-11.636719 z M 32,25 a 8,8 0 0 0 -8,8 8,8 0 0 0 8,8 8,8 0 0 0 8,-8 8,8 0 0 0 -8,-8 z"/>
 <circle style="fill:none;stroke:#3f3f3f;stroke-width:4.23529387;stroke-linecap:round;stroke-linejoin:round" cx="32" cy="32" r="21.882"/>
 <circle style="fill:none;stroke:#3f3f3f;stroke-width:4.36363602;stroke-linecap:round;stroke-linejoin:round" cx="32" cy="32" r="13.818"/>
 <circle style="fill:#3f3f3f" cx="32" cy="32" r="8"/>
 <path style="fill:#06f1ba" d="M 32,58.6 C 16.536027,58.6 5.4,47.463973 5.4,32 5.4,16.536027 16.536027,5.4 32,5.4 Z"/>
 <path style="opacity:0.2;fill:#ffffff" d="M 32 4 A 28 28 0 0 0 4 32 A 28 28 0 0 0 4.0214844 32.585938 A 28 28 0 0 1 32 5 A 28 28 0 0 1 59.978516 32.414062 A 28 28 0 0 0 60 32 A 28 28 0 0 0 32 4 z"/>
</svg>

<svg xmlns="http://www.w3.org/2000/svg" width="64" height="64" version="1"><circle style="opacity:.2" cx="32" cy="33" r="28"/><circle style="fill:#06f1ba" cx="32" cy="32" r="28"/><path style="opacity:.1" d="M32 9C18.77 9 8 19.77 8 33s10.77 24 24 24 24-10.77 24-24S45.23 9 32 9zm0 4.234c10.94 0 19.766 8.825 19.766 19.766 0 10.94-8.825 19.766-19.766 19.766-10.94 0-19.766-8.825-19.766-19.766 0-10.94 8.825-19.766 19.766-19.766zM32 17c-8.81 0-16 7.19-16 16 0 8.81 7.19 16 16 16 8.81 0 16-7.19 16-16 0-8.81-7.19-16-16-16zm0 4.363A11.604 11.604 0 0 1 43.637 33 11.604 11.604 0 0 1 32 44.637 11.604 11.604 0 0 1 20.363 33 11.604 11.604 0 0 1 32 21.363zM32 25a8 8 0 0 0-8 8 8 8 0 0 0 8 8 8 8 0 0 0 8-8 8 8 0 0 0-8-8z"/><circle style="fill:none;stroke:#3f3f3f;stroke-width:4.23529387;stroke-linecap:round;stroke-linejoin:round" cx="32" cy="32" r="21.882"/><circle style="fill:none;stroke:#3f3f3f;stroke-width:4.36363602;stroke-linecap:round;stroke-linejoin:round" cx="32" cy="32" r="13.818"/><circle style="fill:#3f3f3f" cx="32" cy="32" r="8"/><path style="fill:#06f1ba" d="M32 58.6C16.536 58.6 5.4 47.464 5.4 32 5.4 16.536 16.536 5.4 32 5.4z"/><path style="opacity:.2;fill:#fff" d="M32 4A28 28 0 0 0 4 32a28 28 0 0 0 .021.586A28 28 0 0 1 32 5a28 28 0 0 1 27.979 27.414A28 28 0 0 0 60 32 28 28 0 0 0 32 4z"/></svg>
